android/src/main/assets/themes/mapsforgeV4/base/symbols/poi_lightbulb.svg

<?xml version="1.0" encoding="UTF-8" standalone="no"?>
<svg
   width="12"
   height="12"
   version="1.1"
   viewBox="0 0 12 12"
   id="svg4"
   sodipodi:docname="poi_lightbulb.svg"
   inkscape:version="1.1 (c68e22c387, 2021-05-23)"
   xmlns:inkscape="http://www.inkscape.org/namespaces/inkscape"
   xmlns:sodipodi="http://sodipodi.sourceforge.net/DTD/sodipodi-0.dtd"
   xmlns="http://www.w3.org/2000/svg"
   xmlns:svg="http://www.w3.org/2000/svg">
  <sodipodi:namedview
     id="namedview5"
     pagecolor="#ffffff"
     bordercolor="#111111"
     borderopacity="1"
     inkscape:pageshadow="0"
     inkscape:pageopacity="0"
     inkscape:pagecheckerboard="1"
     showgrid="false"
     inkscape:zoom="34.333333"
     inkscape:cx="2.1407767"
     inkscape:cy="7.8786408"
     inkscape:window-width="1920"
     inkscape:window-height="1009"
     inkscape:window-x="1912"
     inkscape:window-y="-8"
     inkscape:window-maximized="1"
     inkscape:current-layer="svg4" />
  <defs
     id="defs8" />
  <path
     d="M 5.9854151,8.9964758 A 3.0109305,3.0109305 0 0 0 8.9963456,5.9855453 c 0,-1.1140452 -0.6072093,-2.0876041 -1.5055112,-2.6095283 V 2.4727287 A 0.50182175,0.50182175 0 0 0 6.9890126,1.970907 H 4.9817256 A 0.50182175,0.50182175 0 0 0 4.4799039,2.4727287 V 3.376017 C 3.5816389,3.8979135 2.9743926,4.8715001 2.9743926,5.9855453 A 3.0109305,3.0109305 0 0 0 5.9853231,8.9964758 M 6.9889667,1.4691036 V 0.96728186 A 0.50182175,0.50182175 0 0 0 6.4871449,0.46545091 H 5.4835014 A 0.50182175,0.50182175 0 0 0 4.9816796,0.96728186 V 1.4691036 H 6.9889667 M 9.999897,6.487321 h 1.505511 V 5.4836775 H 9.999897 V 6.487321 m -9.53502707,0 H 1.9703812 V 5.4836775 H 0.46486993 V 6.487321 M 6.4868229,11.505539 V 10.000028 H 5.4831794 v 1.505511 H 6.4868229 M 2.4320443,10.251007 3.5009168,9.1770745 2.7883198,8.4695008 1.7194473,9.5334053 2.4320443,10.251016 M 8.4689934,9.1821438 9.5328979,10.251016 10.250509,9.5334053 9.1816365,8.4695008 Z"
     fill="#f9f27d"
     stroke="#eba700"
     stroke-linecap="round"
     stroke-linejoin="round"
     stroke-opacity="0.99383"
     stroke-width="0.68541"
     style="mix-blend-mode:normal;paint-order:fill markers stroke"
     id="path2" />
</svg>

<?xml version="1.0" encoding="UTF-8"?>
<svg width="12" height="12" version="1.1" viewBox="0 0 12 12" xmlns="http://www.w3.org/2000/svg">
 <path d="m5.9854 8.9965a3.0109 3.0109 0 0 0 3.0109-3.0109c0-1.114-0.60721-2.0876-1.5055-2.6095v-0.90329a0.50182 0.50182 0 0 0-0.50182-0.50182h-2.0073a0.50182 0.50182 0 0 0-0.50182 0.50182v0.90329c-0.89826 0.5219-1.5055 1.4955-1.5055 2.6095a3.0109 3.0109 0 0 0 3.0109 3.0109m1.0036-7.5274v-0.50182a0.50182 0.50182 0 0 0-0.50182-0.50183h-1.0036a0.50182 0.50182 0 0 0-0.50182 0.50183v0.50182h2.0073m3.0109 5.0182h1.5055v-1.0036h-1.5055v1.0036m-9.535 0h1.5055v-1.0036h-1.5055v1.0036m6.022 5.0182v-1.5055h-1.0036v1.5055h1.0036m-4.0548-1.2545 1.0689-1.0739-0.7126-0.70757-1.0689 1.0639 0.7126 0.71761m6.0369-1.0689 1.0639 1.0689 0.71761-0.71761-1.0689-1.0639z" fill="#f9f27d" stroke="#eba700" stroke-linecap="round" stroke-linejoin="round" stroke-opacity=".99383" stroke-width=".68541" style="mix-blend-mode:normal;paint-order:fill markers stroke"/>
</svg>
